papirus/16x16/apps/maps.svg

<svg height="16" viewBox="0 0 16 16" width="16" xmlns="http://www.w3.org/2000/svg"><rect fill="#d7ccc8" height="16" rx="1" transform="matrix(0 -1 -1 0 0 0)" width="16" x="-16" y="-16"/><path d="m1 16c-.554 0-1-.446-1-1v-1c0 .554.446 1 1 1h14c .554 0 1-.446 1-1v1c0 .554-.446 1-1 1z" opacity=".2"/><path d="m .8 16l7.2-7.2 7.2 7.2z" fill="#2196f3" fill-rule="evenodd"/><path d="m16 15.2l-7.2-7.2 7.2-7.2z" fill="#4caf50" fill-rule="evenodd"/><path d="m8.7070312 7.2929688l-1.4140624 1.4140624 7.2929692 7.2929688h.414062c.554 0 1-.446 1-1v-.414062z" fill="#feea3a" fill-rule="evenodd" overflow="visible"/><path d="m14.585938 0l-14.585938 14.585938v.414062c0 .554.446 1 1 1h .4140625l14.5859375-14.5859375v-.4140625c0-.554-.446-1-1-1z" fill="#fff" fill-rule="evenodd" overflow="visible"/><path d="m12.00004.000002c-2.2091581 0-4.00004 1.7908819-4.00004 4.00004 0 .1380734.01136.2655307.02496.400004.01096.1338013.02864.2689387.05.400004.4579885 2.8115801 2.3250632 4.802736 3.9250792 6.402752 1.600016-1.600016 3.467011-3.5911719 3.924999-6.402752.02136-.1310653.03904-.2662027.05-.400004.0136818-.1344733.0249618-.2619306.0249618-.400004 0-2.2091581-1.790882-4.00004-4.00004-4.00004z" fill="#f44336" overflow="visible"/><path d="m12 2.000006c1.10457 0 2 .895433 2 1.999996 0 1.104571-.89543 2.000004-2 2.000004-1.10457 0-2-.895433-2-2.000004 0-1.104563.89543-1.999996 2-1.999996z" fill="#fff" overflow="visible"/></svg>

<?xml version="1.0" encoding="UTF-8" standalone="no"?>
<!-- Created with Inkscape (http://www.inkscape.org/) -->

<svg
   xmlns:dc="http://purl.org/dc/elements/1.1/"
   xmlns:cc="http://creativecommons.org/ns#"
   xmlns:rdf="http://www.w3.org/1999/02/22-rdf-syntax-ns#"
   xmlns:svg="http://www.w3.org/2000/svg"
   xmlns="http://www.w3.org/2000/svg"
   xmlns:sodipodi="http://sodipodi.sourceforge.net/DTD/sodipodi-0.dtd"
   xmlns:inkscape="http://www.inkscape.org/namespaces/inkscape"
   id="svg4430"
   height="16"
   width="16"
   version="1.1"
   viewBox="0 0 16 16"
   inkscape:version="0.91 r13725"
   sodipodi:docname="maps.svg">
  <defs
     id="defs17" />
  <sodipodi:namedview
     pagecolor="#9a9a9a"
     bordercolor="#666666"
     borderopacity="1"
     objecttolerance="10"
     gridtolerance="10"
     guidetolerance="10"
     inkscape:pageopacity="0"
     inkscape:pageshadow="2"
     inkscape:window-width="1600"
     inkscape:window-height="847"
     id="namedview15"
     showgrid="false"
     inkscape:zoom="19.46"
     inkscape:cx="1.6124293"
     inkscape:cy="5.7225077"
     inkscape:window-x="0"
     inkscape:window-y="0"
     inkscape:window-maximized="1"
     inkscape:current-layer="svg4430" />
  <metadata
     id="metadata4435">
    <rdf:RDF>
      <cc:Work
         rdf:about="">
        <dc:format>image/svg+xml</dc:format>
        <dc:type
           rdf:resource="http://purl.org/dc/dcmitype/StillImage" />
        <dc:title></dc:title>
      </cc:Work>
    </rdf:RDF>
  </metadata>
  <rect
     transform="matrix(0,-1,-1,0,0,0)"
     style="display:inline;fill:#d7ccc8;fill-opacity:1;stroke:none;enable-background:new"
     id="rect4265"
     width="16"
     height="16"
     x="-16"
     y="-16"
     rx="1"
     ry="1" />
  <path
     inkscape:connector-curvature="0"
     id="path4795"
     d="M 1,16 C 0.446,16 0,15.554 0,15 l 0,-1 c 0,0.554 0.446,1 1,1 l 14,0 c 0.554,0 1,-0.446 1,-1 l 0,1 c 0,0.554 -0.446,1 -1,1 L 1,16 Z"
     style="display:inline;opacity:0.2;fill:#000000;fill-opacity:1;stroke:none;enable-background:new" />
  <path
     style="fill:#2196f3;fill-opacity:1;fill-rule:evenodd;stroke:none;stroke-width:1px;stroke-linecap:butt;stroke-linejoin:miter;stroke-opacity:1"
     d="M 0.8,16 8,8.8 15.2,16 Z"
     id="path4440"
     inkscape:connector-curvature="0" />
  <path
     inkscape:connector-curvature="0"
     id="path4442"
     d="M 16,15.2 8.8,8 16,0.8 Z"
     style="fill:#4caf50;fill-opacity:1;fill-rule:evenodd;stroke:none;stroke-width:1px;stroke-linecap:butt;stroke-linejoin:miter;stroke-opacity:1" />
  <path
     style="color:#000000;font-style:normal;font-variant:normal;font-weight:normal;font-stretch:normal;font-size:medium;line-height:normal;font-family:sans-serif;text-indent:0;text-align:start;text-decoration:none;text-decoration-line:none;text-decoration-style:solid;text-decoration-color:#000000;letter-spacing:normal;word-spacing:normal;text-transform:none;direction:ltr;block-progression:tb;writing-mode:lr-tb;baseline-shift:baseline;text-anchor:start;white-space:normal;clip-rule:nonzero;display:inline;overflow:visible;visibility:visible;opacity:1;isolation:auto;mix-blend-mode:normal;color-interpolation:sRGB;color-interpolation-filters:linearRGB;solid-color:#000000;solid-opacity:1;fill:#feea3a;fill-opacity:1;fill-rule:evenodd;stroke:none;stroke-width:2;stroke-linecap:butt;stroke-linejoin:miter;stroke-miterlimit:4;stroke-dasharray:none;stroke-dashoffset:0;stroke-opacity:1;color-rendering:auto;image-rendering:auto;shape-rendering:auto;text-rendering:auto;enable-background:accumulate"
     d="M 8.7070312 7.2929688 L 7.2929688 8.7070312 L 14.585938 16 L 15 16 C 15.554 16 16 15.554 16 15 L 16 14.585938 L 8.7070312 7.2929688 z "
     id="path4444" />
  <path
     style="color:#000000;font-style:normal;font-variant:normal;font-weight:normal;font-stretch:normal;font-size:medium;line-height:normal;font-family:sans-serif;text-indent:0;text-align:start;text-decoration:none;text-decoration-line:none;text-decoration-style:solid;text-decoration-color:#000000;letter-spacing:normal;word-spacing:normal;text-transform:none;direction:ltr;block-progression:tb;writing-mode:lr-tb;baseline-shift:baseline;text-anchor:start;white-space:normal;clip-rule:nonzero;display:inline;overflow:visible;visibility:visible;opacity:1;isolation:auto;mix-blend-mode:normal;color-interpolation:sRGB;color-interpolation-filters:linearRGB;solid-color:#000000;solid-opacity:1;fill:#ffffff;fill-opacity:1;fill-rule:evenodd;stroke:none;stroke-width:2;stroke-linecap:butt;stroke-linejoin:miter;stroke-miterlimit:4;stroke-dasharray:none;stroke-dashoffset:0;stroke-opacity:1;color-rendering:auto;image-rendering:auto;shape-rendering:auto;text-rendering:auto;enable-background:accumulate"
     d="M 14.585938 0 L 0 14.585938 L 0 15 C 0 15.554 0.446 16 1 16 L 1.4140625 16 L 16 1.4140625 L 16 1 C 16 0.446 15.554 0 15 0 L 14.585938 0 z "
     id="path4446" />
  <path
     style="color:#000000;display:inline;overflow:visible;visibility:visible;fill:#f44336;fill-opacity:1;fill-rule:nonzero;stroke:none;stroke-width:2;marker:none;enable-background:new"
     d="M 12.00004,2e-6 C 9.7908819,2e-6 8,1.7908839 8,4.000042 c 0,0.1380734 0.01136,0.2655307 0.02496,0.400004 0.01096,0.1338013 0.02864,0.2689387 0.05,0.400004 0.4579885,2.8115801 2.3250632,4.802736 3.9250792,6.402752 1.600016,-1.600016 3.467011,-3.5911719 3.924999,-6.402752 0.02136,-0.1310653 0.03904,-0.2662027 0.05,-0.400004 C 15.98872,4.2655727 16,4.1381154 16,4.000042 16,1.7908839 14.209118,2e-6 11.99996,2e-6 Z"
     id="path4560"
     inkscape:connector-curvature="0"
     sodipodi:nodetypes="cscccccscc" />
  <path
     sodipodi:nodetypes="sssss"
     inkscape:connector-curvature="0"
     id="path4562"
     d="m 12,2.000006 c 1.10457,0 2,0.895433 2,1.999996 0,1.104571 -0.89543,2.000004 -2,2.000004 -1.10457,0 -2,-0.895433 -2,-2.000004 0,-1.104563 0.89543,-1.999996 2,-1.999996 z"
     style="color:#000000;display:inline;overflow:visible;visibility:visible;fill:#ffffff;fill-opacity:1;fill-rule:nonzero;stroke:none;stroke-width:2;marker:none;enable-background:new" />
</svg>
